public/favicon.svg

<svg width="844" height="1077" viewBox="0 0 844 1077" fill="none" xmlns="http://www.w3.org/2000/svg">
<g clip-path="url(#clip0_146_106)">
<path fill-rule="evenodd" clip-rule="evenodd" d="M843.21 661.844V165.386L469.11 18.5015L421.996 0L374.882 18.5015L0.782069 165.386V661.844C0.782069 661.844 -6.89294 858.893 215.226 968.849C223.053 972.76 230.88 976.671 238.631 980.506C303.831 1013.22 366.447 1046.54 421.996 1077C477.545 1046.54 540.161 1013.3 605.36 980.506C613.111 976.595 620.938 972.684 628.765 968.849C850.885 858.893 843.21 661.844 843.21 661.844ZM596.773 905.898L572.684 917.857C524.431 942.074 473.593 968.849 421.996 996.751C370.322 968.849 319.561 942.149 271.307 917.932L247.142 905.898C76.6203 821.513 72.7448 678.991 72.7448 666.281C72.7448 665.98 72.7448 664.1 72.7448 664.1C72.7448 664.1 72.7448 296.325 72.7448 212.617C146.987 183.436 402.846 83.0313 402.846 83.0313C402.846 83.0313 412.801 79.1204 421.996 75.5103C431.191 79.1204 697.004 183.511 771.247 212.617C771.247 296.401 771.247 663.573 771.247 663.573C771.247 663.573 771.247 666.055 771.247 666.356C771.247 678.916 767.371 821.513 596.773 905.898Z" fill="#1F50FF"/>
<path fill-rule="evenodd" clip-rule="evenodd" d="M231.188 589.492L232.708 590.244L421.24 682.451L612.887 588.74L422.76 870.55L231.188 589.492Z" fill="#1F50FF"/>
<path fill-rule="evenodd" clip-rule="evenodd" d="M612.887 487.508L611.291 486.756L422.76 394.549L231.188 488.26L421.24 206.45L612.887 487.508Z" fill="#1F50FF"/>
<path fill-rule="evenodd" clip-rule="evenodd" d="M422 444.037L231.492 537.372L422 630.707L612.507 537.372L422 444.037Z" fill="#1F50FF"/>
</g>
<defs>
<clipPath id="clip0_146_106">
<rect width="842.427" height="1077" fill="white" transform="translate(0.786133)"/>
</clipPath>
</defs>
</svg>

<svg xmlns="http://www.w3.org/2000/svg" fill="none" viewBox="0 0 844 1077">
    <g fill="#1F50FF" fill-rule="evenodd" clip-path="url(#a)" clip-rule="evenodd">
        <path
            d="M843.21 661.844V165.386L469.11 18.501 421.996 0l-47.114 18.502L.782 165.385v496.458s-7.675 197.049 214.444 307.005a6673.857 6673.857 0 0 0 23.405 11.657c65.2 32.714 127.816 66.034 183.365 96.494 55.549-30.46 118.165-63.7 183.364-96.494a2236.2 2236.2 0 0 1 23.405-11.657C850.885 858.893 843.21 661.844 843.21 661.844ZM596.773 905.898l-24.089 11.959c-48.253 24.217-99.091 50.992-150.688 78.894-51.674-27.902-102.435-54.602-150.689-78.819l-24.165-12.034C76.62 821.513 72.745 678.991 72.745 666.281V212.617c74.242-29.181 330.101-129.586 330.101-129.586l19.15-7.52c9.195 3.61 275.008 108 349.251 137.106v453.739c0 12.56-3.876 155.157-174.474 239.542Z" />
        <path
            d="m231.188 589.492 1.52.752 188.532 92.207 191.647-93.711L422.76 870.55 231.188 589.492Zm381.699-101.984-1.596-.752-188.531-92.207-191.572 93.711L421.24 206.45l191.647 281.058Z" />
        <path d="m422 444.037-190.508 93.335L422 630.707l190.507-93.335L422 444.037Z" />
    </g>
    <defs>
        <clipPath id="a">
            <path fill="#fff" d="M0 0h842.427v1077H0z" transform="translate(.786)" />
        </clipPath>
    </defs>
</svg>
